!!!SOCIAL_FUNCTION:	songs with the corn dance
!!!PDT:	1956
!!!OTL: No_4_Buffalo_Dance_Song_(d).krn
!!!LANG: Non-Tone
!!!LING_GROUP: Muskogean
!!!REG: Florida
**kern
*staff1
=1-
*clefF4
*k[b-]
*M2/4
16F\LK
8.A\J
12A\L
12G\
12F\J
=2
12A\L
12G\
12F\J
16F\LK
8.F\J
=3||
*M3/4
12A\L
12G\
12F\J
12G\L
12F\
12D\J
8D\
16r
16D\
=4||
*M3/8
8.F\L
16F\L
16F\
16D\JJ
=5||
*M2/4
4F\
16F\LK
8.F\J
=6
12F\L
12G\
12F\J
12G\L
12F\
12D\J
=7
8D\
16r
16D\
8.D\L
16F\Jk
=8||
*M3/8
8.F\L
16F\L
16F\
16D\JJ
=9||
*M2/4
4F\
16F\LK
8.F\J
=10
=
16F\LK
8.A\J
12A\L
12G\
12F\J
=11
12A\L
12G\
12F\J
16F\LK
8.F\J
=12||
*M3/4
12A\L
12G\
12F\J
12G\L
12F\
12D\J
8D\
16r
16D\
=13||
*M3/8
8.F\L
16F\L
16F\
16D\JJ
=14||
*M2/4
4F\
16F\LK
8.F\J
=15||
*M3/4
12F\L
12G\
12F\J
12G\L
12F\
12D\J
8D\
16r
16D\
=16||
*M3/8
8.F\L
16F\L
16F\
16D\JJ
=17||
*M2/4
4F\
16F\LK
8.F\J
=18:|!
=
*M3/4
12F\L
12G\
12F\J
12G\L
12F\
12D\J
8D\
8r
=19
*M2/4
4.B-\
8B-\
=20
8B-\L
8B-\J
8B-\L
8B-\J
=21||
*M3/4
(4.B-\
8F\)
4B-\
=22
4B-\
2r
*-
